X:11836
T:Sapüner Walzer C (wz02353)
S:Hanny Christen. Bd.II  St. Gallen II, Graubünden, Tessin. S.401 (wz02353) orig. C
S:Bündner Tänze. S.384-402. Zusammenstellung von Hanny Christen. 
O:Switzerland
%%MIDI program 21
R:Walzer
M:3/4
L:1/4
K:C %%MIDI gchordon
"C"c2G | edc | "G7"B2G | .f!>!d2 | B2G | fed |1 "C"c2G | .g!>!e2 :|2 "C"c>cc | czz || 
|: "Dm"d2d | "G7"agf | "C"e2c | Gce | "G7"d2B | GBd |1 "C"e2c | .G!>!c2 :|2 ("C"c3 | c)zz |] 
W:
W:Sapün - Schanfigger Quelltal, polit. Gemeinde Langwies GR (Hist. Lexikon der Schweiz)
W:Sapün (1273 Sampuni; 1307 Samponi; 1384 Sapünne; 1391 und 1488 Sapiun),
W:von altromanischer Urform Sampugn - "Kuhschelle" (symphoniu; cowbell) (wikipedia)
W:cf. Walsersiedlung Sapün (www.youtube.com/watch?v=HDjsUK_JnfY&feature=related)
% wz02353
% Dez 2, 2016

